X:45
T:Niagara Hornpipe
C:Traditional
S:Jim Coon to CoMandoList TOW
M:4/4
L:1/8
Q:1/8=400
K:Bb
ga|:"Bb"bfdB "F"edcA|"Bb"BABc dBFA|BABc "Gm"dcBd|"Eb"gfga "F"bagf|!
"Bb"bfdB "F"edcA|"Bb"BABc dBF2|EFAc "F"dAcA !
|:"Bb"BBA2 B2ga:|"Bb"bfdf bfdf|bfbf gfdf|"Cm"afcf "Gm"afce|!
"F"f=efg afcA|"Bb"BABc dBFD|"Eb"EDEF G2GD|"Bb"FFAc "F"ecAc:|!
"Bb"BBA2 B4|
W:Created with TablEdit http://www.tabledit.com/
